X: 74
M: 2/4
L: 1/16
K: C
|:\
c'4 g2f2 | (e/f/g3) c2e2 | (d/e/f3) B2d2 | cBcd c2c2 |\
c'4 g2f2 | (e/f/g3) c2e2 | (d/e/f3) (edcB) | c4 c4 :|\
|:\
|:\
|:\
g4 f2e2 | {g}f2{f}e2 {e}d4 | f4 {f}e2d2 | {f}e2c2 c4 |\
g2ef e2g2 | {g}f2de {e}d2f2 |
{f}e2ge {e}f2dB | c4 c4 :|\
|:\
e4 fedc | g2g2 agfe | a4 b4 | c'bc'd' c'2c'2 |\
e4 fedc | g2g2 agfe |
a2c'a b2d'2 | c'4 c'4 :|\
|:\
a4 g2f2 | e2f2g2e2 | d2e2f2d2 | cBcd c2c2 |\
a4 g2f2 | {f}e2f2 {f}g2ec | {e}d2e2 {e}f2dB | c4 c4 :|


